symbols/web/nature/materialsymbolsrounded/nature_grad200_40px.svg

<svg xmlns="http://www.w3.org/2000/svg" height="40" width="40"><path d="M10.083 37.625q-.708 0-1.229-.521-.521-.521-.521-1.271 0-.708.521-1.208t1.229-.5h8.209v-6.833h-3.334q-3.791 0-6.458-2.667-2.667-2.667-2.667-6.458 0-2.667 1.375-4.938t3.834-3.271q.416-3.375 2.979-5.52Q16.583 2.292 20 2.292q3.417 0 5.979 2.146 2.563 2.145 2.979 5.52Q31.417 11 32.792 13.25t1.375 4.917q0 3.791-2.667 6.458-2.667 2.667-6.458 2.667h-3.25v6.833h8.416q.709 0 1.23.5.52.5.52 1.25 0 .708-.52 1.229-.521.521-1.23.521Zm4.875-13.833h10.084q2.333 0 3.979-1.646t1.646-3.979q0-1.625-.813-2.979-.812-1.355-2.271-1.98l-1.875-.791-.25-2.042q-.25-2.042-1.833-3.312Q22.042 5.792 20 5.792t-3.625 1.271q-1.583 1.27-1.833 3.312l-.25 2-1.75.75q-1.5.625-2.354 2.021-.855 1.396-.855 3.021 0 2.333 1.646 3.979t3.979 1.646Zm5.042-9Z"/></svg>

<svg xmlns="http://www.w3.org/2000/svg" height="40" width="40"><path d="M10.083 37.625Q9.375 37.625 8.854 37.104Q8.333 36.583 8.333 35.833Q8.333 35.125 8.854 34.625Q9.375 34.125 10.083 34.125H18.292V27.292H14.958Q11.167 27.292 8.5 24.625Q5.833 21.958 5.833 18.167Q5.833 15.5 7.208 13.229Q8.583 10.958 11.042 9.958Q11.458 6.583 14.021 4.438Q16.583 2.292 20 2.292Q23.417 2.292 25.979 4.438Q28.542 6.583 28.958 9.958Q31.417 11 32.792 13.25Q34.167 15.5 34.167 18.167Q34.167 21.958 31.5 24.625Q28.833 27.292 25.042 27.292H21.792V34.125H30.208Q30.917 34.125 31.438 34.625Q31.958 35.125 31.958 35.875Q31.958 36.583 31.438 37.104Q30.917 37.625 30.208 37.625ZM14.958 23.792H25.042Q27.375 23.792 29.021 22.146Q30.667 20.5 30.667 18.167Q30.667 16.542 29.854 15.188Q29.042 13.833 27.583 13.208L25.708 12.417L25.458 10.375Q25.208 8.333 23.625 7.063Q22.042 5.792 20 5.792Q17.958 5.792 16.375 7.063Q14.792 8.333 14.542 10.375L14.292 12.375L12.542 13.125Q11.042 13.75 10.188 15.146Q9.333 16.542 9.333 18.167Q9.333 20.5 10.979 22.146Q12.625 23.792 14.958 23.792ZM20 14.792Q20 14.792 20 14.792Q20 14.792 20 14.792Q20 14.792 20 14.792Q20 14.792 20 14.792Q20 14.792 20 14.792Q20 14.792 20 14.792Q20 14.792 20 14.792Q20 14.792 20 14.792Q20 14.792 20 14.792Q20 14.792 20 14.792Q20 14.792 20 14.792Q20 14.792 20 14.792Z"/></svg>
